X: 237
T: No_91_Bird_Dance_Song_(n).krn
N: Derived from No_91_Bird_Dance_Song_(n).krn
%%abc-version 2.0
%%abcx-abcm2ps-target-version 5.9.1 (29 Sep 2008)
%%abc-creator hum2abc beta
%%abcx-conversion-date 2019/03/15 08:38:45
%%humdrum-veritas 2432151462
%%humdrum-veritas-data 1888829755
%%linebreak <none>
%%barnumbers 0
L: 1/8
M: 2/4
K: F clef=bass
[K:clef=bass][M:2/4]A,2A,A, [I:setbarnb 2]||  
[M:3/4]G,F, F,/F,/G, G, z ||  
[M:2/4]A,2A,/G,/F, ||  
[M:3/4]G,F, C,/C,/F, F, z ||  
[M:2/4]G,/G,/F, F,D, | 
D,G, G,F, | 
F,D,/D,/ D, z | 
D,2F,2 :|]  



